svgs/icons/sm/payment-card.svg

<svg xmlns="http://www.w3.org/2000/svg" viewBox="0 0 16 16"><path d="M14.1 3h-12.2c-1 0-1.9.9-1.9 1.9v7.2c0 1 .9 1.9 1.9 1.9h12.2c1.1 0 1.9-.9 1.9-1.9v-7.2c0-1-.9-1.9-1.9-1.9zm.9 9.1c0 .5-.4.9-.9.9h-12.2c-.5 0-.9-.4-.9-.9v-4.1h14v4.1zm-14-6.1v-1.1c0-.5.4-.9.9-.9h12.2c.5 0 .9.4.9.9v1.1h-14zm1 4h2v2h-2z" fill="#34363D"/></svg>

<svg xmlns="http://www.w3.org/2000/svg" viewBox="0 0 16 16"><path d="M14.1 3H1.9C.9 3 0 3.9 0 4.9v7.2c0 1 .9 1.9 1.9 1.9h12.2c1.1 0 1.9-.9 1.9-1.9V4.9c0-1-.9-1.9-1.9-1.9zm.9 9.1c0 .5-.4.9-.9.9H1.9c-.5 0-.9-.4-.9-.9V8h14v4.1zM1 6V4.9c0-.5.4-.9.9-.9h12.2c.5 0 .9.4.9.9V6H1zm1 4h2v2H2z" fill="#34363D"/></svg>
